X: 1
T:Cliffs of Moher, The
R:double jig
M:6/8
L:1/8
K:G
e|a2a bag|eaf ged|c2A BAG|EFG Ace|!
aaa bag|eaf ged|c2A BAG|EFG A2:|!
e3 dBA|e/2f/2ge dBA|G2B dBA|GAB dBd|!
e3 dBA|e/2f/2ge dBA|EGA BAG|BAG A3|!
e3 dBA|e/2f/2ge dBA|GAB dBA|GAB dBd|!
efe ded|cdc BcB|EGA BAG|EDB, A,2||!
